assets/img/check.svg

<svg width="18" height="18" viewBox="0 0 18 18" fill="none" xmlns="http://www.w3.org/2000/svg">
<circle cx="9" cy="9" r="9" fill="#48B065"/>
<path d="M7.23477 12.7953L4.07952 9.64002C4.00922 9.5697 3.96973 9.47433 3.96973 9.3749C3.96973 9.27546 4.00922 9.18009 4.07952 9.10977L4.60977 8.57952C4.68009 8.50922 4.77546 8.46973 4.8749 8.46973C4.97433 8.46973 5.0697 8.50922 5.14002 8.57952L7.4999 10.9394L12.8598 5.57952C12.9301 5.50922 13.0255 5.46973 13.1249 5.46973C13.2243 5.46973 13.3197 5.50922 13.39 5.57952L13.9203 6.10977C13.9906 6.18009 14.0301 6.27546 14.0301 6.3749C14.0301 6.47433 13.9906 6.5697 13.9203 6.64002L7.76502 12.7953C7.6947 12.8656 7.59933 12.9051 7.4999 12.9051C7.40046 12.9051 7.30509 12.8656 7.23477 12.7953Z" fill="white"/>
</svg>

<svg xmlns="http://www.w3.org/2000/svg" width="18" height="18" fill="none" xmlns:v="https://vecta.io/nano"><circle cx="9" cy="9" r="9" fill="#48b065"/><path d="M7.235 12.795L4.08 9.64c-.07-.07-.11-.166-.11-.265s.039-.195.11-.265l.53-.53c.07-.07.166-.11.265-.11s.195.039.265.11l2.36 2.36 5.36-5.36c.07-.07.166-.11.265-.11s.195.039.265.11l.53.53c.07.07.11.166.11.265s-.039.195-.11.265l-6.155 6.155c-.07.07-.166.11-.265.11s-.195-.039-.265-.11z" fill="#fff"/></svg>
